src/images/mobile-icons/keyboard.svg

<svg viewBox="0 0 512 512" xmlns="http://www.w3.org/2000/svg" xmlns:xlink="http://www.w3.org/1999/xlink">
  <title>keyboard</title>
  <path d="M426.666667,106.666667 C450.133333,106.666667 469.333333,125.866667 469.333333,149.333333 L469.333333,149.333333 L469.333333,362.666667 C469.333333,386.133333 450.133333,405.333333 426.666667,405.333333 L426.666667,405.333333 L85.3333333,405.333333 C61.8666667,405.333333 42.6666667,386.133333 42.6666667,362.666667 L42.6666667,362.666667 L42.88,149.333333 C42.88,125.866667 61.8666667,106.666667 85.3333333,106.666667 L85.3333333,106.666667 Z M341.333333,320 L170.666667,320 L170.666667,362.666667 L341.333333,362.666667 L341.333333,320 Z M277.333333,234.666667 L234.666667,234.666667 L234.666667,277.333333 L277.333333,277.333333 L277.333333,234.666667 Z M213.333333,234.666667 L170.666667,234.666667 L170.666667,277.333333 L213.333333,277.333333 L213.333333,234.666667 Z M149.333333,234.666667 L106.666667,234.666667 L106.666667,277.333333 L149.333333,277.333333 L149.333333,234.666667 Z M341.333333,234.666667 L298.666667,234.666667 L298.666667,277.333333 L341.333333,277.333333 L341.333333,234.666667 Z M405.333333,234.666667 L362.666667,234.666667 L362.666667,277.333333 L405.333333,277.333333 L405.333333,234.666667 Z M277.333333,170.666667 L234.666667,170.666667 L234.666667,213.333333 L277.333333,213.333333 L277.333333,170.666667 Z M213.333333,170.666667 L170.666667,170.666667 L170.666667,213.333333 L213.333333,213.333333 L213.333333,170.666667 Z M149.333333,170.666667 L106.666667,170.666667 L106.666667,213.333333 L149.333333,213.333333 L149.333333,170.666667 Z M341.333333,170.666667 L298.666667,170.666667 L298.666667,213.333333 L341.333333,213.333333 L341.333333,170.666667 Z M405.333333,170.666667 L362.666667,170.666667 L362.666667,213.333333 L405.333333,213.333333 L405.333333,170.666667 Z" fill="#000" stroke="none" stroke-width="1" fill-rule="evenodd"></path>
</svg>

<svg viewBox="0 0 512 512" xmlns="http://www.w3.org/2000/svg" xmlns:xlink="http://www.w3.org/1999/xlink">
  <title>keyboard</title>
  <path d="M426.667 106.667c23.466 0 42.666 19.2 42.666 42.666v213.334c0 23.466-19.2 42.666-42.666 42.666H85.333c-23.466 0-42.666-19.2-42.666-42.666l.213-213.334c0-23.466 18.987-42.666 42.453-42.666zM341.333 320H170.667v42.667h170.666V320zm-64-85.333h-42.666v42.666h42.666v-42.666zm-64 0h-42.666v42.666h42.666v-42.666zm-64 0h-42.666v42.666h42.666v-42.666zm192 0h-42.666v42.666h42.666v-42.666zm64 0h-42.666v42.666h42.666v-42.666zm-128-64h-42.666v42.666h42.666v-42.666zm-64 0h-42.666v42.666h42.666v-42.666zm-64 0h-42.666v42.666h42.666v-42.666zm192 0h-42.666v42.666h42.666v-42.666zm64 0h-42.666v42.666h42.666v-42.666z" fill="#000" stroke="none" stroke-width="1" fill-rule="evenodd"></path>
</svg>
